!!!COM: Schubert, Franz
!!!CDT: 1797/01/31/-1828/11/19/
!!!CNT: Austrian
!!!OTL@@DE: Variationen &uuml;ber ein Thema von Anselm H&uuml;ttenbrenner
!!!OTL@EN: 13 Variations on a Theme by Anselm H&uuml;ttenbrenner
!!!OKY: A Minor
!!!SCT: D 576
!!!PDT: 1867///
!!!ODT: 1817/08//
!!!YEC: Copyright 2001 by Craig Stuart Sapp
!!!YEN: United States of America
!!!OMD: Var. 2
**kern	**kern
*clefF4	*clefG2
*k[]	*k[]
*M2/4	*M2/4
*MM72	*MM72
*>[A,A,B,B]	*>[A,A,B,B]
*>A	*>A
4A 4c	16a
.	16ee
.	16cc
.	16a
8B' 8d'	16g#
.	16ff
8A' 8c'	16a
.	16ee
=35	=35
4G# 4B	16e'
.	16bb
.	16ff
.	16ee
8F#' 8A'	16dd#
.	16ccc
8G#' 8B'	16ee
.	16bb
=36	=36
4A 4c	16a
.	16cc
.	16dd#
.	16ee
4F 4d	16aa
.	16gg
.	16ffO
.	16ee
=37	=37
2G 2B	16ddn
.	16cc
.	16b
.	16a
.	16g
.	16f#
.	16fn
.	16e
=38	=38
4B 4d	16r
.	16g
.	16aa
.	16gg
8A' 8c'	16ff#
.	16g
8B' 8d'	16ffn
.	16a-
=39	=39
*	*^
4c 4e	8.g	16g
.	.	16ee
.	.	16cc
.	16g#	16g#
*	*v	*v
4A 4c	16a
.	16cc
.	16ee
.	16aa
=40	=40
*^	*
2E 2B	4A	16fff
.	.	16dd
.	.	16ddd#
.	.	16ff
.	4G#	16eee
.	.	16ee
.	.	16ee
.	.	16ddn
*v	*v	*
=41	=41
4AA 4E 4A	16dd
.	16ee
.	16cc
.	16ee
4r	16b
.	16ee
.	16a
.	16ee
=42:|!|:	=42:|!|:
*>B	*>B
4A 4c#	16a
.	16ee
.	16cc#
.	16a
8B' 8d'	16g#
.	16ff
8c#' 8e'	16gn
.	16aa
=42	=42
4d 4f	16f
.	16aa
.	16gg#
.	16aa
4cn 4e	16aa#
.	16fff#
.	16fff#'
.	16fff#'
=43	=43
4B 4d#	16b
.	16ff#
.	16dd#
.	16b
8c#' 8e'	16a#
.	16gg
8d#' 8f#'	16an
.	16bb
=44	=44
4e 4g#	16r
.	16bb
.	16gg#
.	16dd#
8e 8gn	16ee
.	16gggn
8fn 8b	16ggg'
.	16ggg'
=45	=45
4e 4g 4cc	16ggg
.	16gg
.	16aa
.	16bb-
8e 8a 8cc#	16aa
.	16gg#
8e 8b- 8cc#	16ggn
.	16ee
=46	=46
4f# 4a 4dd	16dd
.	16aa
.	16ddd
.	16ccc
8fn 8b 8dd#	16ccc
.	16bb
8f 8cc 8ddn	16bb
.	16aa
=47	=47
4e 4a 4cc 4ee	16aa
.	16cccc
.	16bbb
.	16aaa
*^	*
4b 4dd	8d 8ff	16ggg#
.	.	16fff
.	8e 8ee	16ddd
.	.	16bb
*v	*v	*
=48	=48
4a 4cc 4ee	16aa
.	16bb
.	16ccc
.	16gg#
4r	16aa
.	16ee
.	16cc
.	16a
=:|!	=|!
*-	*-
